X: 4231
T: PRETTY PEGGY
R: Jig
%R: jig
B: James Kerr "Merry Melodies" v.4 p.25 #231
Z: 2016 John Chambers <jc:trillian.mit.edu>
N: The final E in each strain would be better as an initial pickup note.
M: 6/8
L: 1/8
K: A
|:\
ABc BAB | AFE E2E | ABc BAB | cee e2E |\
ABc BAB | AFE E2d | cec BAB | A3- A2E :|
|:\
Ace ecA | dfa agf | ecA ABc | BEE E2E |\
ABc BAB | cee e2f | cec BAB | A3- A2E :|

%%sep 1 1 500
%%sep 1 1 500

